X:1886
T:Farewell To Gurteen
O:england
R:Jig
S:Seamus Tansey (flute)
H:The transcription here is somewhat rationalised.
D:Clare FM broadcast. From the Miltown Malbay flute recital.
M:6/8
L:1/8
K:D
|:dAd ~f3|dfd afa|daf d2f|e=ce ~g3|
dAd ~f3|d2a {b}afd|~A3 gfe|edc d3:|
|:FGA FGA|d2f ecA|~F3 ~A3|FAF BAG|
FGA FGA|d2f ecA|dfa ~g3|Ace d3:|


